public/images/logos/philidelphia-flyers.svg

<svg viewBox="0 0 24 16" xmlns="http://www.w3.org/2000/svg"><path d="m15.061 2.087h-11.496v.543c0 .84.328 1.628.89 2.2h-.89v.543c0 .84.328 1.628.89 2.199h-.89v.543c0 .84.328 1.629.89 2.201h-.89v.542c0 1.684 1.289 3.055 2.874 3.055h2.666l1.809-3.059c1.019 1.24 2.544 1.981 4.146 1.981 2.963 0 5.374-2.411 5.374-5.375.001-2.962-2.411-5.373-5.373-5.373z"/><path d="m11.044 11.587c-.206 0-.375.169-.375.375 0 .208.169.377.375.377.208 0 .375-.169.375-.377 0-.206-.167-.375-.375-.375zm0 .671c-.162 0-.294-.133-.294-.296 0-.161.132-.295.294-.295.163 0 .296.134.296.295 0 .163-.133.296-.296.296z"/><path d="m11.198 11.875c0-.07-.057-.127-.127-.127h-.181v.43h.08v-.176h.059l.08.176h.089l-.085-.182c.05-.018.085-.064.085-.121zm-.127.047h-.101v-.093h.101c.026 0 .047.02.047.046s-.02.047-.047.047z"/><path d="m15.063 2.267h-11.322v.357c0 .994.478 1.872 1.198 2.388h-1.198v.358c0 .994.478 1.871 1.198 2.388h-1.198v.357c0 .996.478 1.873 1.198 2.387h-1.198v.359c0 1.584 1.208 2.873 2.693 2.873h2.562l1.891-3.196c.978 1.325 2.524 2.117 4.176 2.117 2.864 0 5.194-2.331 5.194-5.195.001-2.863-2.329-5.193-5.194-5.193z" fill="#fff"/><path d="m15.063 2.624h-10.86c0 1.39 1.046 2.515 2.334 2.515h4.091c.064 0 .116.052.116.116 0 .063-.052.115-.116.115h-6.425c0 1.388 1.046 2.515 2.334 2.515h2.467c.064 0 .116.051.116.115s-.052.115-.116.115h-4.801c0 1.389 1.046 2.514 2.334 2.514h.843c.064 0 .116.053.116.117 0 .062-.052.115-.116.115h-3.177c0 1.389 1.046 2.514 2.334 2.514h2.256l4.216-7.127c.416-.702 1.18-1.173 2.055-1.173 1.317 0 2.385 1.067 2.385 2.385s-1.067 2.387-2.385 2.387c-1.302 0-2.358-1.042-2.386-2.337l-1.596 2.698c.873 1.262 2.33 2.089 3.981 2.089 2.671 0 4.836-2.166 4.836-4.837s-2.165-4.836-4.836-4.836z"/><circle cx="15.063" cy="7.46" fill="#f74902" r="1.373"/></svg>

<svg xmlns="http://www.w3.org/2000/svg" viewBox="0 0 24 16"><path d="M15.061,2.087H3.565V2.63c0,0.84,0.328,1.628,0.89,2.2h-0.89v0.543c0,0.84,0.328,1.628,0.89,2.199h-0.89v0.543 c0,0.84,0.328,1.629,0.89,2.201h-0.89v0.542c0,1.684,1.289,3.055,2.874,3.055h2.666l1.809-3.059 c1.019,1.24,2.544,1.981,4.146,1.981c2.963,0,5.374-2.411,5.374-5.375C20.435,4.498,18.023,2.087,15.061,2.087z"/><path d="M11.044,11.587c-0.206,0-0.375,0.169-0.375,0.375c0,0.208,0.169,0.377,0.375,0.377c0.208,0,0.375-0.169,0.375-0.377 C11.419,11.756,11.252,11.587,11.044,11.587z M11.044,12.258c-0.162,0-0.294-0.133-0.294-0.296c0-0.161,0.132-0.295,0.294-0.295 c0.163,0,0.296,0.134,0.296,0.295C11.34,12.125,11.207,12.258,11.044,12.258z"/><path d="M11.198,11.875c0-0.07-0.057-0.127-0.127-0.127h-0.181v0.43h0.08v-0.176h0.059l0.08,0.176h0.089l-0.085-0.182 C11.163,11.978,11.198,11.932,11.198,11.875z M11.071,11.922h-0.101v-0.093h0.101c0.026,0,0.047,0.02,0.047,0.046 S11.098,11.922,11.071,11.922z"/><path fill="#FFF" d="M15.063,2.267H3.741v0.357c0,0.994,0.478,1.872,1.198,2.388H3.741V5.37c0,0.994,0.478,1.871,1.198,2.388 H3.741v0.357c0,0.996,0.478,1.873,1.198,2.387H3.741v0.359c0,1.584,1.208,2.873,2.693,2.873h2.562l1.891-3.196 c0.978,1.325,2.524,2.117,4.176,2.117c2.864,0,5.194-2.331,5.194-5.195C20.258,4.597,17.928,2.267,15.063,2.267z"/><path d="M15.063,2.624H4.203c0,1.39,1.046,2.515,2.334,2.515h4.091c0.064,0,0.116,0.052,0.116,0.116 c0,0.063-0.052,0.115-0.116,0.115H4.203c0,1.388,1.046,2.515,2.334,2.515h2.467C9.068,7.885,9.12,7.936,9.12,8 S9.068,8.115,9.004,8.115H4.203c0,1.389,1.046,2.514,2.334,2.514H7.38c0.064,0,0.116,0.053,0.116,0.117 c0,0.062-0.052,0.115-0.116,0.115H4.203c0,1.389,1.046,2.514,2.334,2.514h2.256l4.216-7.127c0.416-0.702,1.18-1.173,2.055-1.173 c1.317,0,2.385,1.067,2.385,2.385s-1.067,2.387-2.385,2.387c-1.302,0-2.358-1.042-2.386-2.337l-1.596,2.698 c0.873,1.262,2.33,2.089,3.981,2.089c2.671,0,4.836-2.166,4.836-4.837S17.734,2.624,15.063,2.624z"/><circle fill="#F74902" cx="15.063" cy="7.46" r="1.373"/></svg>
